X: 98
T:Les Plaiseurs des Dames
T:John Malchair's Third Collection of Tunes
%%VWML:Malchair-3619-p98
F:https://www.vwml.org/record/Malchair/3619/p98
F:www.vwml.org/topics/historic-dance-and-tune-books/Malchair
Z:Peter Kanssen March 2020
M:6/8
L:1/8
K:G
B2B | d2c A2A | D2B G2G | c2B ABG | FED B2B | 
d2c A2A | d2B G2G | AcB AGF | G3 ||
ABA | d2A d2f | e3 f2a | g2f efd | ^cBA f2f | 
a2a e2e | a2f d2d | egf ed^c | d3 ded | 
g2g BcB | d2d GAG | c2B A2G | d2 [N:as per MS - should probably be d3] "^D.C."||
W:
T:Women's dance in the Ombres Chinoises
T:John Malchair's Third Collection of Tunes
F:https://www.vwml.org/record/Malchair/3619/p98
F:www.vwml.org/topics/historic-dance-and-tune-books/Malchair
M:6/8
L:1/8
K:G
B | d2B d2B | G2G GAB | c2A c2A | FGA D3 | 
d2B g2d | e2c g2e | dec BcA | G2G G2 ||
z| DFA cAF | GBd dBG | DFA cAF | GBd dBG | 
ece ege | dBd dgd | edc BcA | G2G G2 ||
